packages/pilot/src/containers/Home/icons/total-transactions-icon.svg

<svg width="28" height="16" viewBox="0 0 28 16" fill="none" xmlns="http://www.w3.org/2000/svg">
<path fill-rule="evenodd" clip-rule="evenodd" d="M10.7061 0.219971L4.3241 7.03297L0.329102 2.81297L0.371102 15.428L12.2291 15.472L8.2761 11.252L14.6591 4.48297L10.7061 0.219971ZM17.2941 15.604L23.7181 8.74697L27.6711 12.967L27.6291 0.306971H15.7711L19.7651 4.52697L13.3411 11.34L17.2941 15.604Z" fill="#65A300"/>
</svg>

<svg xmlns="http://www.w3.org/2000/svg" width="28" height="16" viewBox="0 0 28 16">
    <g fill="#52C8B4" fill-rule="evenodd">
        <path d="M10.706.22L4.324 7.033.329 2.813l.042 12.615 11.858.044-3.953-4.22 6.383-6.769zM17.294 15.604l6.424-6.857 3.953 4.22-.042-12.66H15.771l3.994 4.22-6.424 6.813z"/>
    </g>
</svg>
